src/assets/icons/facebook.svg

<svg width="19" height="19" viewBox="0 0 19 19" fill="none" xmlns="http://www.w3.org/2000/svg">
<path d="M18.5 9.36843C18.5 4.36797 14.4703 0.313721 9.5 0.313721C4.52975 0.313721 0.5 4.36797 0.5 9.36843C0.5 13.8882 3.791 17.6339 8.09375 18.313V11.986H5.8085V9.36767H8.09375V7.37413C8.09375 5.10517 9.43775 3.85109 11.4935 3.85109C12.4775 3.85109 13.508 4.02841 13.508 4.02841V6.25663H12.3725C11.2542 6.25663 10.9055 6.95459 10.9055 7.67067V9.36843H13.4015L13.0025 11.9867H10.9055V18.3137C15.209 17.6339 18.5 13.8875 18.5 9.36843Z" fill="#1877F2"/>
</svg>

<svg xmlns="http://www.w3.org/2000/svg" width="19" height="19" fill="none"><path fill="#1877F2" d="M18.5 9.368c0-5-4.03-9.054-9-9.054s-9 4.054-9 9.054c0 4.52 3.291 8.266 7.594 8.945v-6.327H5.809V9.368h2.285V7.374c0-2.269 1.344-3.523 3.4-3.523.983 0 2.014.177 2.014.177v2.229h-1.135c-1.119 0-1.467.698-1.467 1.414v1.697H13.4l-.399 2.619h-2.097v6.327c4.304-.68 7.595-4.427 7.595-8.946Z"/></svg>
